app/images/icons/email.svg

<svg fill="none" height="15" viewBox="0 0 20 15" width="20" xmlns="http://www.w3.org/2000/svg"><path d="m19.6094 4.96094c-.8985.70312-2.0313 1.5625-6.0156 4.45312-.7813.58594-2.2266 1.87504-3.5938 1.87504-1.40625 0-2.8125-1.2891-3.63281-1.87504-3.98438-2.89062-5.11719-3.75-6.015628-4.45312-.15625-.11719-.351562 0-.351562.19531v7.96875c0 1.0547.820312 1.875 1.875 1.875h16.25c1.0156 0 1.875-.8203 1.875-1.875v-7.96875c0-.19531-.2344-.3125-.3906-.19531zm-9.6094 5.03906c.8984.0391 2.1875-1.13281 2.8516-1.60156 5.1953-3.75 5.5859-4.10156 6.7578-5.03906.2344-.15626.3906-.42969.3906-.74219v-.74219c0-1.015625-.8594-1.875-1.875-1.875h-16.25c-1.054688 0-1.875.859375-1.875 1.875v.74219c0 .3125.117188.58593.351562.74219 1.171878.9375 1.562498 1.28906 6.757818 5.03906.66406.46875 1.95312 1.64066 2.89062 1.60156z" fill="#fff"/></svg>

<svg width="20" height="15" viewBox="0 0 20 15" fill="none" xmlns="http://www.w3.org/2000/svg">
<path d="M19.6094 4.96094C18.7109 5.66406 17.5781 6.52344 13.5938 9.41406C12.8125 10 11.3672 11.2891 10 11.2891C8.59375 11.2891 7.1875 10 6.36719 9.41406C2.38281 6.52344 1.25 5.66406 0.351562 4.96094C0.195312 4.84375 0 4.96094 0 5.15625V13.125C0 14.1797 0.820312 15 1.875 15H18.125C19.1406 15 20 14.1797 20 13.125V5.15625C20 4.96094 19.7656 4.84375 19.6094 4.96094ZM10 10C10.8984 10.0391 12.1875 8.86719 12.8516 8.39844C18.0469 4.64844 18.4375 4.29688 19.6094 3.35938C19.8438 3.20312 20 2.92969 20 2.61719V1.875C20 0.859375 19.1406 0 18.125 0H1.875C0.820312 0 0 0.859375 0 1.875V2.61719C0 2.92969 0.117188 3.20312 0.351562 3.35938C1.52344 4.29688 1.91406 4.64844 7.10938 8.39844C7.77344 8.86719 9.0625 10.0391 10 10Z" fill="white"/>
</svg>
